X: 105
T: Missa Pascale / Credo
N: Derived from Rue1023c-Missa_Pascale-Credo.krn
C: Pierre de la Rue
%%abc-version 2.0
%%abcx-abcm2ps-target-version 5.9.1 (29 Sep 2008)
%%abc-creator hum2abc beta
%%abcx-conversion-date 2019/02/17 08:01:14
%%abc-edited-by Jesse Rodin
%%abc-edited-by Chris Gage 04-18-2013
%%abcx-initial-encoding-date 2013/08/01/
%%humdrum-veritas 1048916322
%%humdrum-veritas-data 2385486561
%%linebreak <none>
%%barnumbers 0
L: 1/4
M: 2/1
Q: 1/2=120
V: 1 clef=treble
V: 2 clef=treble-8
V: 3 clef=treble-8
V: 4 clef=treble-8
V: 5 clef=bass
K: C
[V:1] E8 | 
[V:2] z8 | 
[V:3] z8 | 
[V:4] z8 | 
[V:5] z8 | 
[V:1] G8 | 
[V:2] e8 | 
[V:3] z8 | 
[V:4] z8 | 
[V:5] z8 | 
[V:1] A8 | 
[V:2] f8- | 
[V:3] D8 | 
[V:4] z8 | 
[V:5] z8 | 
[V:1] A8 | 
[V:2] f8 | 
[V:3] D8 | 
[V:4] z8 | 
[V:5] z8 | 
[V:1] G4A4- | 
[V:2] e4c4- | 
[V:3] E4F4- | 
[V:4] z8 | 
[V:5] z8 | 
[V:1] A2G2F4 | 
[V:2] c4d4 | 
[V:3] F2E2D4 | 
[V:4] z8 | 
[V:5] z8 | 
[V:1] G4D2A2- | 
[V:2] e4f4- | 
[V:3] C4D4 | 
[V:4] z8 | 
[V:5] z8 | 
[V:1] A2G2F2A2- | 
[V:2] f2e2d4- | 
[V:3] F8 | 
[V:4] A8 | 
[V:5] z8 | 
[V:1] A2GFE4 | 
[V:2] d4c4 | 
[V:3] E8 | 
[V:4] A4A4 | 
[V:5] A,,8 | 
[V:1] F8 | 
[V:2] d8 | 
[V:3] D8 | 
[V:4] A4B2A2- | 
[V:5] D,4D,4- | 
[V:1] z8 | 
[V:2] z8 | 
[V:3] z8 | 
[V:4] A2GFE4 | 
[V:5] D,4C,4 | 
[V:1] z8 | 
[V:2] z8 | 
[V:3] z8 | 
[V:4] D4z4 | 
[V:5] D,4C,2B,,2 | 
[V:1] z8 | 
[V:2] z8 | 
[V:3] z8 | 
[V:4] E2F2G2G2 | 
[V:5] A,,4G,,4 | 
[V:1] z8 | 
[V:2] z8 | 
[V:3] z8 | 
[V:4] G4F3G | 
[V:5] B,,2C,2D,2D,2 | 
[V:1] z8 | 
[V:2] z8 | 
[V:3] z8 | 
[V:4] A_BA4GF | 
[V:5] D,8 | 
[V:1] z8 | 
[V:2] z8 | 
[V:3] z8 | 
[V:4] E2c3BGA | 
[V:5] C,3D,E,F,E,2- | 
[V:1] z8 | 
[V:2] z8 | 
[V:3] z8 | 
[V:4] B2A4G2 | 
[V:5] E,D,C,2B,,4 | 
[V:1] z8 | 
[V:2] e8 | 
[V:3] z8 | 
[V:4] A2GFE4 | 
[V:5] A,,8 | 
[V:1] A6A2 | 
[V:2] f8 | 
[V:3] F8- | 
[V:4] D8- | 
[V:5] z8 | 
[V:1] A4A4 | 
[V:2] f4d4 | 
[V:3] F8 | 
[V:4] D8 | 
[V:5] z8 | 
[V:1] G3AB2c2- | 
[V:2] e8 | 
[V:3] E8 | 
[V:4] z8 | 
[V:5] z8 | 
[V:1] cBAGA4 | 
[V:2] c4d4 | 
[V:3] F8 | 
[V:4] z8 | 
[V:5] z4D,4 | 
[V:1] B4z2B2- | 
[V:2] d8 | 
[V:3] G8- | 
[V:4] D4D2D2- | 
[V:5] G,,4G,,4 | 
[V:1] B2B2B2B2 | 
[V:2] B3cd2d2 | 
[V:3] G8 | 
[V:4] D2E2D2G2- | 
[V:5] G,,4G,,4- | 
[V:1] G2B3cd2- | 
[V:2] e4d3c | 
[V:3] G8 | 
[V:4] G2FEG2FE | 
[V:5] G,,2G,,2G,,4- | 
[V:1] dcBAG2AG | 
[V:2] B8 | 
[V:3] G8 | 
[V:4] D4E4 | 
[V:5] G,,4G,4 | 
[V:1] A4z2A2- | 
[V:2] d4B2c2 | 
[V:3] F4G2A2- | 
[V:4] F2A2B2A2 | 
[V:5] D,4G,2F,2- | 
[V:1] A2c2B2A2 | 
[V:2] d2e4d2 | 
[V:3] AGE2F4 | 
[V:4] F2A2d4 | 
[V:5] F,E,C,2D,4 | 
[V:1] c6BA | 
[V:2] e8- | 
[V:3] E8 | 
[V:4] c8 | 
[V:5] A,,4A,,2C,2- | 
[V:1] G2A2B4 | 
[V:2] e8 | 
[V:3] E4E4 | 
[V:4] z8 | 
[V:5] C,B,,A,,2G,,4 | 
[V:1] A4c4 | 
[V:2] z8 | 
[V:3] F8 | 
[V:4] c4c2c2- | 
[V:5] F,,8 | 
[V:1] c2c4B2 | 
[V:2] z4e4 | 
[V:3] E8 | 
[V:4] c2A4B2 | 
[V:5] A,,4A,,2G,,2 | 
[V:1] A2c4BA | 
[V:2] f4e2e2- | 
[V:3] A6G2 | 
[V:4] c8 | 
[V:5] F,,4C,4- | 
[V:1] G2A2B4 | 
[V:2] e2c2d2e2 | 
[V:3] E4G3F | 
[V:4] c4B4 | 
[V:5] C,4G,,4 | 
[V:1] A4A4 | 
[V:2] c2d2f2e2- | 
[V:3] E2D2A3G | 
[V:4] c2F3DE2 | 
[V:5] A,,2D,4C,2 | 
[V:1] A8 | 
[V:2] e2d4^c2 | 
[V:3] F4E4 | 
[V:4] F2A4A2 | 
[V:5] D,4A,,4 | 
[V:1] z4A4 | 
[V:2] d8- | 
[V:3] z8 | 
[V:4] F4D4 | 
[V:5] D,4z2D,2 | 
[V:1] A2A4A2 | 
[V:2] d8 | 
[V:3] z8 | 
[V:4] A8- | 
[V:5] D,2F,4E,D, | 
[V:1] A3GFEF2- | 
[V:2] z8 | 
[V:3] z8 | 
[V:4] A8- | 
[V:5] C,2D,3C,D,2 | 
[V:1] F2EDE4 | 
[V:2] z4e4 | 
[V:3] z8 | 
[V:4] A8- | 
[V:5] A,,2D,4^C,2 | 
[V:1] D4z2D2 | 
[V:2] f4f4 | 
[V:3] z8 | 
[V:4] A8 | 
[V:5] D,8- | 
[V:1] D2D2A3G/A/ | 
[V:2] f2f4f2 | 
[V:3] z8 | 
[V:4] z8 | 
[V:5] D,8- | 
[V:1] _B2A2FGAB | 
[V:2] f3edcd2- | 
[V:3] z8 | 
[V:4] z8 | 
[V:5] D,8- | 
[V:1] A2G4^F2 | 
[V:2] d2cBA2A2 | 
[V:3] z8 | 
[V:4] z8 | 
[V:5] D,8 | 
[V:1] G4z2G2 | 
[V:2] G2c2c2B2 | 
[V:3] z8 | 
[V:4] z8 | 
[V:5] z8 | 
[V:1] A2c4B2 | 
[V:2] c4d4 | 
[V:3] z8 | 
[V:4] z8 | 
[V:5] z8 | 
[V:1] A4z2A2 | 
[V:2] z2c2d2f2- | 
[V:3] z8 | 
[V:4] z8 | 
[V:5] z8 | 
[V:1] B2d4c2 | 
[V:2] f2d2e4 | 
[V:3] z8 | 
[V:4] z8 | 
[V:5] z8 | 
[V:1] B2A4GF | 
[V:2] d4z2d2 | 
[V:3] z8 | 
[V:4] z8 | 
[V:5] z8 | 
[V:1] G2E4c2- | 
[V:2] e2g3fed | 
[V:3] z8 | 
[V:4] z8 | 
[V:5] z8 | 
[V:1] cBAGAGB2 | 
[V:2] edf3edc | 
[V:3] z8 | 
[V:4] z8 | 
[V:5] z8 | 
[V:1] BAGFGEA2- | 
[V:2] dce4c2 | 
[V:3] z8 | 
[V:4] z8 | 
[V:5] z8 | 
[V:1] A2G2GFGA | 
[V:2] c3Bcdef | 
[V:3] z8 | 
[V:4] z8 | 
[V:5] z8 | 
[V:1] GFEDE4 | 
[V:2] e2d4^c2 | 
[V:3] z8 | 
[V:4] z8 | 
[V:5] z8 | 
[V:1] D8 | 
[V:2] d8- | 
[V:3] F8- | 
[V:4] z4A4 | 
[V:5] D,6D,2 | 
[V:1] z8 | 
[V:2] d8 | 
[V:3] F8 | 
[V:4] A2A4_B2- | 
[V:5] D,4D,4 | 
[V:1] z8 | 
[V:2] z8 | 
[V:3] F8 | 
[V:4] B2A4GF | 
[V:5] D,8 | 
[V:1] z8 | 
[V:2] z8 | 
[V:3] G8 | 
[V:4] E4z2E2- | 
[V:5] C,2C,2B,,2C,2- | 
[V:1] z8 | 
[V:2] z8 | 
[V:3] G8 | 
[V:4] E2E2D2E2- | 
[V:5] C,2B,,A,,B,,2C,2 | 
[V:1] z8 | 
[V:2] z8 | 
[V:3] G8 | 
[V:4] E2DCD2E2 | 
[V:5] G,,3A,,B,,2C,2 | 
[V:1] z8 | 
[V:2] z8 | 
[V:3] F8 | 
[V:4] FGABc2B2- | 
[V:5] D,4A,,2D,2 | 
[V:1] z8 | 
[V:2] z8 | 
[V:3] D8 | 
[V:4] B2A4^G2 | 
[V:5] D,C,B,,A,,B,,4 | 
[V:1] z8 | 
[V:2] z8 | 
[V:3] E8 | 
[V:4] A4z2A2 | 
[V:5] A,,4z2A,,2 | 
[V:1] z8 | 
[V:2] z8 | 
[V:3] z4E4 | 
[V:4] B4c4 | 
[V:5] D,4C,4 | 
[V:1] z8 | 
[V:2] z8 | 
[V:3] F4G4 | 
[V:4] d6cB | 
[V:5] B,,8 | 
[V:1] z8 | 
[V:2] z8 | 
[V:3] A4z2E2 | 
[V:4] c2A2B2c2 | 
[V:5] A,,2D,4C,2- | 
[V:1] z4z2C2 | 
[V:2] z8 | 
[V:3] F2G2A4 | 
[V:4] d4c4- | 
[V:5] C,B,,B,,2A,,2C,2- | 
[V:1] E2F2G4 | 
[V:2] z8 | 
[V:3] G2F4E2 | 
[V:4] c4B4 | 
[V:5] C,B,,A,,2G,,4 | 
[V:1] A4A2c2- | 
[V:2] c4c2c2 | 
[V:3] F8 | 
[V:4] A8- | 
[V:5] F,,8 | 
[V:1] cBA4GF | 
[V:2] A2c4BA | 
[V:3] F4F4 | 
[V:4] A8 | 
[V:5] F,,4F,,4 | 
[V:1] G2E2A2G2- | 
[V:2] G2c3de2- | 
[V:3] E2A3GE2 | 
[V:4] z8 | 
[V:5] C,4C,4 | 
[V:1] G2F4E2 | 
[V:2] e2c2c4 | 
[V:3] A4G4 | 
[V:4] z8 | 
[V:5] C,8 | 
[V:1] F4z2F2- | 
[V:2] c8 | 
[V:3] F8 | 
[V:4] z8 | 
[V:5] F,,8 | 
[V:1] F2EDE2C2 | 
[V:2] z2c4BA | 
[V:3] z8 | 
[V:4] z8 | 
[V:5] C,8 | 
[V:1] D2E2F2D2 | 
[V:2] B2G2A2B2 | 
[V:3] z8 | 
[V:4] z8 | 
[V:5] z8 | 
[V:1] E4z2G2- | 
[V:2] c2A2B4 | 
[V:3] z8 | 
[V:4] z8 | 
[V:5] z8 | 
[V:1] G2A2B2G2 | 
[V:2] z2d4e2 | 
[V:3] z8 | 
[V:4] z8 | 
[V:5] z8 | 
[V:1] A2B2c4 | 
[V:2] f2d2e2f2 | 
[V:3] z8 | 
[V:4] z8 | 
[V:5] z8 | 
[V:1] B4G2G2- | 
[V:2] g4d2e2- | 
[V:3] z8 | 
[V:4] z8 | 
[V:5] G,8 | 
[V:1] G2FED4 | 
[V:2] e2dcB4 | 
[V:3] z8 | 
[V:4] z4B4 | 
[V:5] G,4G,4 | 
[V:1] z8 | 
[V:2] z8 | 
[V:3] z8 | 
[V:4] c4c4 | 
[V:5] A,3G,E,2F,2- | 
[V:1] z8 | 
[V:2] z4e4 | 
[V:3] z8 | 
[V:4] c6dc | 
[V:5] F,2E,D,E,4 | 
[V:1] z8 | 
[V:2] f4f4 | 
[V:3] z8 | 
[V:4] d4A2B2- | 
[V:5] D,8- | 
[V:1] z4A4 | 
[V:2] f6gf | 
[V:3] z8 | 
[V:4] B2AGA4 | 
[V:5] D,8 | 
[V:1] B4B4 | 
[V:2] g4d2e2- | 
[V:3] z8 | 
[V:4] G8- | 
[V:5] z8 | 
[V:1] B6cB | 
[V:2] e2dcd4 | 
[V:3] z8 | 
[V:4] G8 | 
[V:5] z8 | 
[V:1] c4A2A2- | 
[V:2] c8- | 
[V:3] A8- | 
[V:4] z8 | 
[V:5] F,4F,2F,2- | 
[V:1] A2GFE2F2- | 
[V:2] c8 | 
[V:3] A8 | 
[V:4] z8 | 
[V:5] F,2E,D,C,2F,,2 | 
[V:1] FEE4D2 | 
[V:2] z8 | 
[V:3] A8- | 
[V:4] E4F4 | 
[V:5] C,4D,4 | 
[V:1] E8 | 
[V:2] z8 | 
[V:3] A8 | 
[V:4] E4E3F | 
[V:5] A,,8 | 
[V:1] z8 | 
[V:2] z4B3c | 
[V:3] B8- | 
[V:4] G2G2G2G2 | 
[V:5] E,8 | 
[V:1] z4B3c | 
[V:2] d2d2d2d2 | 
[V:3] B8 | 
[V:4] D4G2G2- | 
[V:5] z8 | 
[V:1] d2d2d2d2 | 
[V:2] G4d4 | 
[V:3] B8 | 
[V:4] G2FED4 | 
[V:5] z8 | 
[V:1] G4c4- | 
[V:2] e6e2 | 
[V:3] c8- | 
[V:4] C8 | 
[V:5] z4A,,3B,, | 
[V:1] c2BAG2A2 | 
[V:2] e6dc | 
[V:3] c8 | 
[V:4] z8 | 
[V:5] C,2C,2C,2C,2 | 
[V:1] B2G2d4 | 
[V:2] d2g4g2 | 
[V:3] B8 | 
[V:4] G4G4 | 
[V:5] G,,4G,,4 | 
[V:1] c3BG2A2 | 
[V:2] e8- | 
[V:3] c6c2 | 
[V:4] C3DE2C2 | 
[V:5] A,,3B,,C,2A,,2 | 
[V:1] E2A4^G2 | 
[V:2] e8 | 
[V:3] c2c2B4 | 
[V:4] E3FG4 | 
[V:5] C,3D,E,4 | 
[V:1] A8- | 
[V:2] z4e4 | 
[V:3] A8- | 
[V:4] E8 | 
[V:5] A,,8- | 
[V:1] A8 | 
[V:2] f4e2c2- | 
[V:3] A8- | 
[V:4] z4E4 | 
[V:5] A,,8- | 
[V:1] z8 | 
[V:2] c2d2e4- | 
[V:3] A8 | 
[V:4] F4E2C2 | 
[V:5] A,,8 | 
[V:1] z4B4 | 
[V:2] e4d4 | 
[V:3] z8 | 
[V:4] E3FG4 | 
[V:5] z4G,,4 | 
[V:1] c4B2G2- | 
[V:2] c2e4dc | 
[V:3] z4G4 | 
[V:4] C4z2G2- | 
[V:5] A,,4E,4- | 
[V:1] G2A2B2E2- | 
[V:2] B4z4 | 
[V:3] G4G4 | 
[V:4] G2FED2C2 | 
[V:5] E,2D,C,B,,2C,2- | 
[V:1] E2DCD4 | 
[V:2] z8 | 
[V:3] G8 | 
[V:4] E3FD4 | 
[V:5] C,2B,,A,,B,,4 | 
[V:1] C8 | 
[V:2] e8 | 
[V:3] A6G2 | 
[V:4] E8 | 
[V:5] A,,8 | 
[V:1] z4C4 | 
[V:2] d4e4- | 
[V:3] F4E4 | 
[V:4] z4A4 | 
[V:5] z4A,,4 | 
[V:1] C4C4 | 
[V:2] e4c4 | 
[V:3] z2E2F2E2 | 
[V:4] A4A4 | 
[V:5] A,,4A,,4 | 
[V:1] F3DF2G2 | 
[V:2] d8 | 
[V:3] D2F4ED | 
[V:4] F4D4 | 
[V:5] _B,,8 | 
[V:1] A2B2c4- | 
[V:2] e6c2- | 
[V:3] C3DE4 | 
[V:4] A8 | 
[V:5] A,,8 | 
[V:1] c4B4 | 
[V:2] c2BAG4 | 
[V:3] z4z2E2 | 
[V:4] z8 | 
[V:5] F,,4G,,4 | 
[V:1] A2GFE2A2- | 
[V:2] A4c4- | 
[V:3] F2EDC2F2- | 
[V:4] z8 | 
[V:5] F,,3G,,A,,2F,,2 | 
[V:1] A2G3^FF2 | 
[V:2] c2B2A4 | 
[V:3] F2D2E2F2 | 
[V:4] z8 | 
[V:5] A,,2B,,2C,2D,2 | 
[V:1] G4z2E2 | 
[V:2] G4z4 | 
[V:3] D4E4 | 
[V:4] B4B2B2 | 
[V:5] G,,4G,4 | 
[V:1] E2E2G4 | 
[V:2] z4z2e2 | 
[V:3] z2E2E2E2 | 
[V:4] B8- | 
[V:5] G,4G,4 | 
[V:1] z2E2E2E2 | 
[V:2] e2e2g4 | 
[V:3] G4z2E2 | 
[V:4] B8 | 
[V:5] G,8 | 
[V:1] G3FD3E | 
[V:2] z2g2g2g2 | 
[V:3] E2E2G2FE | 
[V:4] z2B2B2B2 | 
[V:5] z2G,,2G,,2G,,2 | 
[V:1] FGA3Bc2- | 
[V:2] f3ed2c2 | 
[V:3] D4F4 | 
[V:4] d2cBA4 | 
[V:5] D,4D,2A,,2- | 
[V:1] c2BAG2E2 | 
[V:2] e4e4 | 
[V:3] E8 | 
[V:4] c4B4- | 
[V:5] A,,B,,C,D,E,3F, | 
[V:1] E2E2G3F | 
[V:2] z2e2e2e2 | 
[V:3] z2E2E2E2 | 
[V:4] B4z2B2 | 
[V:5] G,2G,2G,4 | 
[V:1] D3EFGA2- | 
[V:2] B2g2f3e | 
[V:3] G2FED2D2 | 
[V:4] B2B2d2cB | 
[V:5] G,,4z4 | 
[V:1] ABc4BA | 
[V:2] d2c2e4 | 
[V:3] F4E4 | 
[V:4] A2A2c4 | 
[V:5] z4A,,4 | 
[V:1] G4z2G2- | 
[V:2] e4z2e2 | 
[V:3] z2E4E2 | 
[V:4] B4z2B2- | 
[V:5] E,3F,G,2G,2 | 
[V:1] G2G2A4 | 
[V:2] d2e2f4 | 
[V:3] G2FED2A2- | 
[V:4] B2B2d4 | 
[V:5] G,,2G,,2D,4 | 
[V:1] c3BG2d2- | 
[V:2] e6d2 | 
[V:3] A2E2G3F | 
[V:4] c4B3c | 
[V:5] A,,4z4 | 
[V:1] dcA2c3B | 
[V:2] f4e4- | 
[V:3] D2A3GE2 | 
[V:4] d2c2A4- | 
[V:5] z4A,,4- | 
[V:1] A2G2F2E2- | 
[V:2] e4z4 | 
[V:3] c3BA2G2 | 
[V:4] A4A4 | 
[V:5] A,,4A,,4 | 
[V:1] EDD4^C2 | 
[V:2] z4e4 | 
[V:3] F2EDE4 | 
[V:4] A8 | 
[V:5] A,,8 | 
[V:1] D4z2A2 | 
[V:2] f6d2 | 
[V:3] D4F4 | 
[V:4] F3GA4 | 
[V:5] D,8 | 
[V:1] B2d3cB2- | 
[V:2] d4d4 | 
[V:3] G4G4 | 
[V:4] G4D4- | 
[V:5] G,,8 | 
[V:1] B2A4G2 | 
[V:2] d8 | 
[V:3] F8 | 
[V:4] D2E2F2G2 | 
[V:5] D,8- | 
[V:1] F2E2D4 | 
[V:2] d8 | 
[V:3] F4F4 | 
[V:4] A8 | 
[V:5] D,8 | 
[V:1] C8- | 
[V:2] e8- | 
[V:3] E8 | 
[V:4] A8- | 
[V:5] A,,8- | 
[V:1] C8 ||  
[V:2] e8 ||  
[V:3] E8 ||  
[V:4] A8 ||  
[V:5] A,,8 ||  
[V:1]  [K:C] [K:clef=treble][M:2/1]G8 | 
[V:2]  [K:C] [K:clef=treble-8][M:2/1]e6d2 | 
[V:3]  [K:C] [K:clef=treble-8][M:2/1]E8 | 
[V:4]  [K:C] [K:clef=treble-8][M:2/1]z8 | 
[V:5]  [K:C] [K:clef=bass][M:2/1]z8 | 
[V:1] G4G4 | 
[V:2] c2B2c2BA | 
[V:3] E4E4 | 
[V:4] z8 | 
[V:5] z8 | 
[V:1] G3AB2c2- | 
[V:2] G2c2B2e2- | 
[V:3] E8 | 
[V:4] z8 | 
[V:5] z8 | 
[V:1] c2BAG4 | 
[V:2] e2d2e4 | 
[V:3] F4E4 | 
[V:4] z8 | 
[V:5] z8 | 
[V:1] z2c2B2c2- | 
[V:2] z2c2d2e2- | 
[V:3] A4G2E2 | 
[V:4] z8 | 
[V:5] z8 | 
[V:1] c2BAG2A2 | 
[V:2] e2d2e2c2- | 
[V:3] F4E4- | 
[V:4] z8 | 
[V:5] z4z2A,,2 | 
[V:1] E8 | 
[V:2] c2BAG4 | 
[V:3] E8 | 
[V:4] z2A2c3d | 
[V:5] C,3D,E,F,G,2 | 
[V:1] z8 | 
[V:2] z8 | 
[V:3] z8 | 
[V:4] e2d3cBA | 
[V:5] C,2G,2F,2G,2- | 
[V:1] z8 | 
[V:2] z2c2d2d2 | 
[V:3] z8 | 
[V:4] G2c4B2 | 
[V:5] G,F,E,2D,4 | 
[V:1] z2G2A2A2 | 
[V:2] e2e2f4 | 
[V:3] z8 | 
[V:4] c4z4 | 
[V:5] C,4z4 | 
[V:1] B2c2c2BA | 
[V:2] e4z2d2 | 
[V:3] z2E2F2F2 | 
[V:4] z8 | 
[V:5] z8 | 
[V:1] G4z2c2 | 
[V:2] e2B2c2AB | 
[V:3] E2G2F4 | 
[V:4] z8 | 
[V:5] z8 | 
[V:1] c2B2G2A2- | 
[V:2] cde4e2- | 
[V:3] E4z2c2 | 
[V:4] z8 | 
[V:5] z8 | 
[V:1] A2GFEDF2- | 
[V:2] e2d2B2c2 | 
[V:3] c2B2G2A2- | 
[V:4] z8 | 
[V:5] z8 | 
[V:1] F2E4D2 | 
[V:2] A2c4BA | 
[V:3] AGFEF4 | 
[V:4] z8 | 
[V:5] z2A,,2A,,2B,,2 | 
[V:1] E8 | 
[V:2] G4z4 | 
[V:3] E8 | 
[V:4] z2G2G2A2 | 
[V:5] C,3D,E,2C,2 | 
[V:1] z8 | 
[V:2] z8 | 
[V:3] z8 | 
[V:4] B3cd2B2 | 
[V:5] D,2E,2F,2E,D, | 
[V:1] G4G2G2 | 
[V:2] z8 | 
[V:3] z4E4 | 
[V:4] c2d2e2dc | 
[V:5] C,8 | 
[V:1] G4z2G2 | 
[V:2] e4e2e2 | 
[V:3] E2E2E4 | 
[V:4] B8- | 
[V:5] z8 | 
[V:1] E2G4FE | 
[V:2] e4z2d2 | 
[V:3] z2G2E2G2- | 
[V:4] B8 | 
[V:5] z8 | 
[V:1] D2D2F3G | 
[V:2] B2d4cB | 
[V:3] G2FED2D2 | 
[V:4] z8 | 
[V:5] z8 | 
[V:1] ABc4BA | 
[V:2] A2A2c3d | 
[V:3] F3GABc2- | 
[V:4] z8 | 
[V:5] z8 | 
[V:1] G3AB2c2 | 
[V:2] efg4fe | 
[V:3] c2BAG3A | 
[V:4] z8 | 
[V:5] z8 | 
[V:1] B2A4^G2 | 
[V:2] d2e4d2 | 
[V:3] B2c2B4 | 
[V:4] z8 | 
[V:5] z8 | 
[V:1] A8 | 
[V:2] e8 | 
[V:3] A8- | 
[V:4] z4E4 | 
[V:5] A,,8 | 
[V:1] z8 | 
[V:2] z8 | 
[V:3] A8 | 
[V:4] F4E2A2- | 
[V:5] A,,4A,,4 | 
[V:1] z8 | 
[V:2] z8 | 
[V:3] z8 | 
[V:4] A2G2F2ED | 
[V:5] B,,4A,,2D,2- | 
[V:1] z8 | 
[V:2] z8 | 
[V:3] z8 | 
[V:4] E2e4d2 | 
[V:5] D,2C,2B,,2A,,G,, | 
[V:1] z8 | 
[V:2] z8 | 
[V:3] z8 | 
[V:4] c2BAc2B2 | 
[V:5] A,,2A,4G,2 | 
[V:1] z8 | 
[V:2] z8 | 
[V:3] z8 | 
[V:4] A2d4^c2 | 
[V:5] F,2E,D,E,4 | 
[V:1] z4A4- | 
[V:2] z8 | 
[V:3] A6A2 | 
[V:4] d8 | 
[V:5] D,8- | 
[V:1] A2A2F3E | 
[V:2] d6d2 | 
[V:3] F3ED4 | 
[V:4] z8 | 
[V:5] D,8 | 
[V:1] D4G4- | 
[V:2] B3AG4 | 
[V:3] G6G2 | 
[V:4] z8 | 
[V:5] z8 | 
[V:1] G2G2E3D | 
[V:2] c6c2 | 
[V:3] E3DC2F2 | 
[V:4] z8 | 
[V:5] z8 | 
[V:1] C2F2F2F2- | 
[V:2] A3GF4 | 
[V:3] F2F3GAB | 
[V:4] z8 | 
[V:5] z8 | 
[V:1] FGABc2BA | 
[V:2] z2A3Bcd | 
[V:3] c3BA2GF | 
[V:4] z8 | 
[V:5] z8 | 
[V:1] G3AB2A2- | 
[V:2] e2e2f2d2- | 
[V:3] E4D4 | 
[V:4] z8 | 
[V:5] z8 | 
[V:1] A2G4^F2 | 
[V:2] d2cBA4 | 
[V:3] D8 | 
[V:4] z8 | 
[V:5] z8 | 
[V:1] G8 | 
[V:2] G8 | 
[V:3] z8 | 
[V:4] z4B2c2 | 
[V:5] E,2F,2G,2G,2 | 
[V:1] z8 | 
[V:2] z8 | 
[V:3] z8 | 
[V:4] d2d2d2cB | 
[V:5] G,2F,E,D,E,F,2- | 
[V:1] z8 | 
[V:2] z8 | 
[V:3] z8 | 
[V:4] ABc3BAG | 
[V:5] F,G,A,3G,F,E, | 
[V:1] z8 | 
[V:2] z8 | 
[V:3] z8 | 
[V:4] A2E2F4 | 
[V:5] F,2E,4D,2 | 
[V:1] G4E2E2 | 
[V:2] z8 | 
[V:3] z8 | 
[V:4] E8 | 
[V:5] E,8 | 
[V:1] D4G3F | 
[V:2] z8 | 
[V:3] G4E2E2 | 
[V:4] z8 | 
[V:5] z8 | 
[V:1] FEA4G2 | 
[V:2] d4B2B2 | 
[V:3] D4G3E | 
[V:4] z8 | 
[V:5] z8 | 
[V:1] A2E2F2G2 | 
[V:2] A4d3B | 
[V:3] FEA4G2 | 
[V:4] z8 | 
[V:5] z8 | 
[V:1] E4A4 | 
[V:2] cBe4d2 | 
[V:3] A2E2F4 | 
[V:4] z8 | 
[V:5] z8 | 
[V:1] G2E4F2 | 
[V:2] e2B2c4 | 
[V:3] E2E2A4 | 
[V:4] z8 | 
[V:5] z8 | 
[V:1] G4G4- | 
[V:2] B2B2e4 | 
[V:3] G2E4F2 | 
[V:4] z8 | 
[V:5] z8 | 
[V:1] G2FED2E2 | 
[V:2] d2B4c2 | 
[V:3] G6FE | 
[V:4] z8 | 
[V:5] z8 | 
[V:1] F2E4D2 | 
[V:2] d2B3AA2 | 
[V:3] D2E2F4 | 
[V:4] z8 | 
[V:5] z4F,4 | 
[V:1] E8- | 
[V:2] B8 | 
[V:3] E8- | 
[V:4] z8 | 
[V:5] G,6F,2 | 
[V:1] E8 | 
[V:2] z8 | 
[V:3] E8 | 
[V:4] z4B4 | 
[V:5] E,2D,2C,2B,,2 | 
[V:1] z8 | 
[V:2] z8 | 
[V:3] z8 | 
[V:4] c6B2 | 
[V:5] A,,3B,,C,2D,2- | 
[V:1] z8 | 
[V:2] z8 | 
[V:3] z8 | 
[V:4] A2G2F2E2 | 
[V:5] D,C,B,,A,,B,,A,,C,2 | 
[V:1] z8 | 
[V:2] z8 | 
[V:3] z8 | 
[V:4] D3EF2G2- | 
[V:5] D,2F,2D,2E,2- | 
[V:1] z8 | 
[V:2] z4e4 | 
[V:3] z8 | 
[V:4] GFEDE4 | 
[V:5] E,D,D,4^C,2 | 
[V:1] z8 | 
[V:2] f6e2 | 
[V:3] z4F4 | 
[V:4] D8 | 
[V:5] D,8 | 
[V:1] z8 | 
[V:2] d2c2B2A2 | 
[V:3] G6F2 | 
[V:4] z8 | 
[V:5] z8 | 
[V:1] z4B4 | 
[V:2] G8 | 
[V:3] E2D2C2B,2 | 
[V:4] z8 | 
[V:5] z8 | 
[V:1] c6B2 | 
[V:2] A2e4d2 | 
[V:3] A,8- | 
[V:4] z8 | 
[V:5] z8 | 
[V:1] A2G2F2E2 | 
[V:2] c2B2ABcB/c/ | 
[V:3] A,8 | 
[V:4] z8 | 
[V:5] z8 | 
[V:1] D2A2F2G2- | 
[V:2] d2f4e2- | 
[V:3] z2D4C2 | 
[V:4] z8 | 
[V:5] z8 | 
[V:1] GFEDE4 | 
[V:2] edd4^c2 | 
[V:3] D4A4 | 
[V:4] z8 | 
[V:5] z8 | 
[V:1] D8 | 
[V:2] d8 | 
[V:3] D8 | 
[V:4] z8 | 
[V:5] D,4D,2B,,2- | 
[V:1] z8 | 
[V:2] z8 | 
[V:3] z8 | 
[V:4] D4F2G2 | 
[V:5] B,,C,D,4C,B,, | 
[V:1] z8 | 
[V:2] z8 | 
[V:3] z8 | 
[V:4] A4A2F2- | 
[V:5] A,,4A,,4 | 
[V:1] z8 | 
[V:2] z8 | 
[V:3] z8 | 
[V:4] FGA4GF | 
[V:5] A,,4z2A,,2 | 
[V:1] z8 | 
[V:2] z8 | 
[V:3] z8 | 
[V:4] E4z2E2 | 
[V:5] C,2D,2E,2C,2 | 
[V:1] z8 | 
[V:2] z8 | 
[V:3] z8 | 
[V:4] G2A2B2G2 | 
[V:5] E,2F,2G,4- | 
[V:1] z8 | 
[V:2] z8 | 
[V:3] z8 | 
[V:4] B2c2d4- | 
[V:5] G,2F,E,F,2G,2 | 
[V:1] A4A2F2- | 
[V:2] z8 | 
[V:3] z4A4 | 
[V:4] d2cBc2d2 | 
[V:5] D,4F,4 | 
[V:1] FGA4GF | 
[V:2] z8 | 
[V:3] A2F3GA2- | 
[V:4] A2A2A3B | 
[V:5] F,E,D,C,D,4 | 
[V:1] E4z4 | 
[V:2] e4e2c2- | 
[V:3] A2GFE4- | 
[V:4] c8 | 
[V:5] C,8- | 
[V:1] z2E2G2A2 | 
[V:2] cde4dc | 
[V:3] E8 | 
[V:4] z8 | 
[V:5] C,8 | 
[V:1] B2G2B2c2 | 
[V:2] B4z4 | 
[V:3] z2E2G2A2 | 
[V:4] z8 | 
[V:5] z8 | 
[V:1] d6cB | 
[V:2] z2B2d2e2- | 
[V:3] B2G2B2c2 | 
[V:4] z8 | 
[V:5] z8 | 
[V:1] A4c4 | 
[V:2] efd2e2f2 | 
[V:3] d2cBA4 | 
[V:4] z8 | 
[V:5] z8 | 
[V:1] B2G4F2 | 
[V:2] g3fd4 | 
[V:3] G8- | 
[V:4] z8 | 
[V:5] z8 | 
[V:1] E2DCD2d2- | 
[V:2] z2g4f2 | 
[V:3] G8- | 
[V:4] z8 | 
[V:5] z8 | 
[V:1] d2c3BB2 | 
[V:2] e2dcd4 | 
[V:3] G8 | 
[V:4] z8 | 
[V:5] z8 | 
[V:1] c8 | 
[V:2] c8 | 
[V:3] z8 | 
[V:4] z4G4 | 
[V:5] C,3D,E,2C,2 | 
[V:1] z8 | 
[V:2] z8 | 
[V:3] z8 | 
[V:4] G3AB2G2 | 
[V:5] E,2F,2G,4 | 
[V:1] z8 | 
[V:2] z8 | 
[V:3] z8 | 
[V:4] B2c2d4 | 
[V:5] G,2F,4E,D, | 
[V:1] z8 | 
[V:2] z8 | 
[V:3] z8 | 
[V:4] d2c4BA | 
[V:5] F,2E,2C,3D, | 
[V:1] z8 | 
[V:2] z8 | 
[V:3] z8 | 
[V:4] c2B2G3A | 
[V:5] E,F,G,3F,E,2- | 
[V:1] G3AB2G2 | 
[V:2] z8 | 
[V:3] z8 | 
[V:4] Bcd3cBA | 
[V:5] E,2D,C,B,,2E,2 | 
[V:1] B2c2d4 | 
[V:2] z8 | 
[V:3] z8 | 
[V:4] B2A4^G2 | 
[V:5] D,2C,2B,,4 | 
[V:1] c6c2 | 
[V:2] c3de2c2 | 
[V:3] z8 | 
[V:4] A8 | 
[V:5] A,,8 | 
[V:1] c4B4- | 
[V:2] e2f2g4- | 
[V:3] z4G3A | 
[V:4] z8 | 
[V:5] z8 | 
[V:1] B4B4 | 
[V:2] g2g2g4 | 
[V:3] B2G2B2c2 | 
[V:4] z8 | 
[V:5] z8 | 
[V:1] A4A2A2 | 
[V:2] f8 | 
[V:3] d4D3E | 
[V:4] z8 | 
[V:5] z8 | 
[V:1] A2F4ED | 
[V:2] f4f4 | 
[V:3] F2D2F3G | 
[V:4] z8 | 
[V:5] z8 | 
[V:1] C4C3D | 
[V:2] e4A3B | 
[V:3] A8 | 
[V:4] z8 | 
[V:5] z8 | 
[V:1] E2C2E3F | 
[V:2] c2A2c2d2 | 
[V:3] A4A4 | 
[V:4] z8 | 
[V:5] z8 | 
[V:1] G2A4^G2 | 
[V:2] e2dcB4 | 
[V:3] E8 | 
[V:4] z8 | 
[V:5] [M:3/2](3z4z4E,4 | 
[V:1] [M:3/1]A8E4 | 
[V:2] [M:3/1]A12 | 
[V:3] [M:3/1]z12 | 
[V:4] [M:3/1]z12 | 
[V:5] [M:3/1]F,6G,2A,4 | 
[V:1] F6G2A4 | 
[V:2] z12 | 
[V:3] z12 | 
[V:4] [M:3/1]z4z4A4 | 
[V:5] D,12 | 
[V:1] D12 | 
[V:2] z12 | 
[V:3] [M:3/1]z4z4D4 | 
[V:4] B6c2d4 | 
[V:5] z12 | 
[V:1] z12 | 
[V:2] [M:3/1]z4z4B4 | 
[V:3] E6F2G4 | 
[V:4] G12 | 
[V:5] z12 | 
[V:1] z12 | 
[V:2] c6d2e4 | 
[V:3] C12 | 
[V:4] z12 | 
[V:5] z4z4E,4 | 
[V:1] z4z4E4 | 
[V:2] A12 | 
[V:3] z12 | 
[V:4] z12 | 
[V:5] F,6G,2A,4 | 
[V:1] F6G2A4 | 
[V:2] z12 | 
[V:3] z12 | 
[V:4] z4z4A4 | 
[V:5] D,6E,2F,4 | 
[V:1] D6E2F4 | 
[V:2] z12 | 
[V:3] z4z4D4 | 
[V:4] B6c2d4 | 
[V:5] G,6F,2D,4 | 
[V:1] G6F2D4 | 
[V:2] z4z4B4 | 
[V:3] E6F2G4 | 
[V:4] G6A2B4 | 
[V:5] C,8z4 | 
[V:1] C12 | 
[V:2] c6d2e4 | 
[V:3] C8C4 | 
[V:4] E6F2G4 | 
[V:5] z12 | 
[V:1] z4z4E4 | 
[V:2] A6B2c4 | 
[V:3] F6G2A4 | 
[V:4] A12- | 
[V:5] z12 | 
[V:1] F6G2A4 | 
[V:2] d6c2A4 | 
[V:3] D8z4 | 
[V:4] A8z4 | 
[V:5] z4z4A,,4 | 
[V:1] D8A4 | 
[V:2] G4d8 | 
[V:3] z12 | 
[V:4] D6E2F4 | 
[V:5] B,,6C,2D,4 | 
[V:1] B6c2d4 | 
[V:2] B4d8 | 
[V:3] D8D4 | 
[V:4] G6A2B4 | 
[V:5] G,,8G,,4 | 
[V:1] G4c6B2 | 
[V:2] c6d2e2f2 | 
[V:3] E6D2C4 | 
[V:4] c4A8 | 
[V:5] C,6B,,2A,,4 | 
[V:1] B4A6G2 | 
[V:2] g4f6e2 | 
[V:3] D12- | 
[V:4] d6c2A4 | 
[V:5] G,,4D,6C,2 | 
[V:1] G4A8 | 
[V:2] d6c2c4 | 
[V:3] D4E8 | 
[V:4] B4c2B2A2G2 | 
[V:5] B,,4A,,8 | 
[V:1] [M:2/1]z4F4 | 
[V:2] [M:2/1]d8 | 
[V:3] [M:2/1]D8 | 
[V:4] [M:2/1]F8 | 
[V:5] [M:2/1]z4D,4 | 
[V:1] F8 | 
[V:2] z8 | 
[V:3] z8 | 
[V:4] z4A4 | 
[V:5] D,8 | 
[V:1] G8 | 
[V:2] B4c4 | 
[V:3] z8 | 
[V:4] G8 | 
[V:5] E,8 | 
[V:1] F8 | 
[V:2] d8 | 
[V:3] z4F4 | 
[V:4] A8 | 
[V:5] D,8- | 
[V:1] F8 | 
[V:2] d8 | 
[V:3] F6G2 | 
[V:4] A8 | 
[V:5] D,8 | 
[V:1] E8 | 
[V:2] c8 | 
[V:3] A4E4 | 
[V:4] A4G4- | 
[V:5] A,,4C,4 | 
[V:1] D8 | 
[V:2] B8- | 
[V:3] G4D4 | 
[V:4] G2A2B2c2 | 
[V:5] G,,4G,,4- | 
[V:1] D4D4- | 
[V:2] B8 | 
[V:3] D6E2 | 
[V:4] d8 | 
[V:5] G,,2A,,2B,,2C,2 | 
[V:1] D2E2F2G2 | 
[V:2] A4A4- | 
[V:3] F2G2A4- | 
[V:4] D6E2 | 
[V:5] D,8 | 
[V:1] A8 | 
[V:2] A2B2c2d2 | 
[V:3] A2G2F4 | 
[V:4] F2G2A2B2 | 
[V:5] D,8 | 
[V:1] A8 | 
[V:2] e8 | 
[V:3] E4A4 | 
[V:4] c2d3^c^c2 | 
[V:5] A,,8 | 
[V:1] z4A4- | 
[V:2] f8 | 
[V:3] F4A4- | 
[V:4] d8 | 
[V:5] D,8 | 
[V:1] A4G4 | 
[V:2] e4e4 | 
[V:3] A2GFE4 | 
[V:4] z2A2B2c2 | 
[V:5] z8 | 
[V:1] F4A4- | 
[V:2] z4f4- | 
[V:3] D8 | 
[V:4] d6cB | 
[V:5] z4D,4- | 
[V:1] A2F2G2E2 | 
[V:2] f2ede2c2 | 
[V:3] z8 | 
[V:4] A4E4 | 
[V:5] D,4C,4 | 
[V:1] E4c4- | 
[V:2] c8 | 
[V:3] C3DE2F2- | 
[V:4] A8 | 
[V:5] A,,4A,,2F,,2- | 
[V:1] c4B4 | 
[V:2] z8 | 
[V:3] F2EDE4 | 
[V:4] A4B3c | 
[V:5] F,,2A,,2G,,4 | 
[V:1] A4c4 | 
[V:2] z4f4- | 
[V:3] F4C4 | 
[V:4] d2c4BA | 
[V:5] F,,8 | 
[V:1] c2BAG4 | 
[V:2] f4e4 | 
[V:3] E6C2 | 
[V:4] G4G4 | 
[V:5] C,8 | 
[V:1] A8 | 
[V:2] f3edcd2- | 
[V:3] C4F4 | 
[V:4] F8 | 
[V:5] F,,4z2F,2 | 
[V:1] G2E2F4 | 
[V:2] d2c4B2 | 
[V:3] G2G4F2 | 
[V:4] z8 | 
[V:5] E,2C,2D,4 | 
[V:1] [M:3/1]E4A4G4 | 
[V:2] [M:3/1]c6d2e4 | 
[V:3] [M:3/1]G4F4E4 | 
[V:4] [M:3/1]z4z4c4 | 
[V:5] [M:3/1]C,4F,,4C,4 | 
[V:1] F4c4B4 | 
[V:2] d4e8 | 
[V:3] F4A4G4 | 
[V:4] A6G2E4 | 
[V:5] D,4A,,4E,4 | 
[V:1] A6G2F4 | 
[V:2] c4f6e2 | 
[V:3] F8D4 | 
[V:4] A4F6G2 | 
[V:5] F,4D,6C,2 | 
[V:1] E4D6E2 | 
[V:2] c4d4A4- | 
[V:3] E4F8 | 
[V:4] A8d4 | 
[V:5] A,,4D,8 | 
[V:1] E12 | 
[V:2] A4c8 | 
[V:3] E12- | 
[V:4] c6B2A4 | 
[V:5] A,,6B,,2C,2D,2 | 
[V:1] E12- | 
[V:2] B12- | 
[V:3] E12- | 
[V:4] G8E4- | 
[V:5] E,4E,,8 | 
[V:1] E12- | 
[V:2] B12- | 
[V:3] E12- | 
[V:4] E2F2G8 | 
[V:5] E,,12- | 
[V:1] E12 |]  
[V:2] B12 |]  
[V:3] E12 |]  
[V:4] G12 |]  
[V:5] E,,12 |]  



